X: 1
T: Missa Et ecce terre motus / Kyrie
N: Derived from Bru1008a-Missa_Et_ecce_terre_motus-Kyrie.krn
C: Antoine Brumel
%%abc-version 2.0
%%abcx-abcm2ps-target-version 5.9.1 (29 Sep 2008)
%%abc-creator hum2abc beta
%%abcx-conversion-date 2019/02/16 20:23:55
%%abc-edited-by Jesse Rodin
%%abc-edited-by Philip Legge
%%abcx-initial-encoding-date 2014/06/20/
%%humdrum-veritas 518265867
%%humdrum-veritas-data 2414819431
%%linebreak <none>
%%barnumbers 0
L: 1/4
M: 3/1
Q: 1/2=120
V: 1 clef=treble
V: 2 clef=treble
V: 3 clef=treble
V: 4 clef=treble-8
V: 5 clef=treble-8
V: 6 clef=treble-8
V: 7 clef=treble-8
V: 8 clef=treble-8
V: 9 clef=treble-8
V: 10 clef=bass
V: 11 clef=bass
V: 12 clef=bass
K: C
[V:1] z12 | 
[V:2] z12 | 
[V:3] z12 | 
[V:4] z4z4d4 | 
[V:5] d4d2B4G2 | 
[V:6] z12 | 
[V:7] z12 | 
[V:8] z12 | 
[V:9] z12 | 
[V:10] G,6G,2G,4 | 
[V:11] z12 | 
[V:12] z12 | 
[V:1] z12 | 
[V:2] z12 | 
[V:3] z12 | 
[V:4] d4B4d4 | 
[V:5] A2B4AGF4 | 
[V:6] z4z2G2A2B2 | 
[V:7] z12 | 
[V:8] z12 | 
[V:9] z12 | 
[V:10] F,2G,4F,E,D,4 | 
[V:11] z12 | 
[V:12] z12 | 
[V:1] z2G2A2B2c4 | 
[V:2] z4z2D2E2F2 | 
[V:3] z4z4z2A2 | 
[V:4] e6d4c2 | 
[V:5] G4C2G2c2A2 | 
[V:6] c6B2A4 | 
[V:7] z12 | 
[V:8] z12 | 
[V:9] z12 | 
[V:10] C,4z4z4 | 
[V:11] z12 | 
[V:12] z12 | 
[V:1] B2GABcd3c/B/A2 | 
[V:2] G3F/E/D2G4^F2 | 
[V:3] B3cd3c/B/A2d2- | 
[V:4] d2g3f/e/d3ef2 | 
[V:5] D2B4G2A4 | 
[V:6] G8z2D2 | 
[V:7] z12 | 
[V:8] z12 | 
[V:9] d8d4 | 
[V:10] D,8F,3E, | 
[V:11] G,,8D,4 | 
[V:12] z12 | 
[V:1] B4z2B2c3B/A/ | 
[V:2] G3ABcd2G4 | 
[V:3] dGG6E3F | 
[V:4] z2d2dB2GG4 | 
[V:5] G2B3AGFG2C2 | 
[V:6] D2G3F/E/D2C2c2- | 
[V:7] z12 | 
[V:8] z12 | 
[V:9] B4d4e4 | 
[V:10] D,4G,,2G,3F,G,2 | 
[V:11] G,,4z2G,,2C,3D, | 
[V:12] z12 | 
[V:1] G2FA2GG4^F2 | 
[V:2] z4G4d4 | 
[V:3] G2D2z4A4 | 
[V:4] z2A2d2e2fedc | 
[V:5] G2z2G2C2F3E | 
[V:6] c2A2B2G2A4 | 
[V:7] z12 | 
[V:8] z12 | 
[V:9] e2d4c2d4 | 
[V:10] C,2D,2G,,2G,2z2D,2 | 
[V:11] E,2F,2G,2E,2D,4 | 
[V:12] z12 | 
[V:1] G4z2D2G3A | 
[V:2] z2d3cBAG4 | 
[V:3] B3GG4z2D2 | 
[V:4] B3cd2d3cBA | 
[V:5] D4G8 | 
[V:6] G4B3cd2d2- | 
[V:7] z12 | 
[V:8] z12 | 
[V:9] d8B3c | 
[V:10] D,4B,,8 | 
[V:11] G,,12 | 
[V:12] D,12 | 
[V:1] B4z4B3c | 
[V:2] z2D2G3AB4 | 
[V:3] G3AB4z4 | 
[V:4] G3F/E/D4G3A | 
[V:5] z4B3cd2d2- | 
[V:6] dcBAG3F/E/D4 | 
[V:7] z12 | 
[V:8] z12 | 
[V:9] d2d3cBAG3F/E/ | 
[V:10] B,3CD2D3CB,A, | 
[V:11] G,,12- | 
[V:12] D,12 | 
[V:1] d2d3cBAG3F/E/ | 
[V:2] z4B3cd2d2- | 
[V:3] B3cd2d3cBA | 
[V:4] B4z2g6 | 
[V:5] dcBAG3F/E/D4 | 
[V:6] G3AB4z2B2- | 
[V:7] d12 | 
[V:8] z12 | 
[V:9] D4G3AB2G2- | 
[V:10] G,3F,/E,/D,4G,4 | 
[V:11] G,,12 | 
[V:12] B,,12 | 
[V:1] D6F3GA2 | 
[V:2] dcBA/G/F3GA2F2 | 
[V:3] G3F/E/D2d3c/B/A2 | 
[V:4] g4agfed4 | 
[V:5] G4z4D4 | 
[V:6] B4A3GF4 | 
[V:7] d12 | 
[V:8] z12 | 
[V:9] G2d4cBA4 | 
[V:10] z2D,2F,2D,2A,4 | 
[V:11] G,,4D,3E,F,2D,2 | 
[V:12] D,12 | 
[V:1] G2B3AGFE4 | 
[V:2] G2E2G3AB4- | 
[V:3] z2G2B3AG4 | 
[V:4] G2g3fe4dc | 
[V:5] =B3AG4z2B2 | 
[V:6] E2G3AB3GG2 | 
[V:7] B12 | 
[V:8] G12- | 
[V:9] z2e4dcB4 | 
[V:10] z2E,3F,G,2z2G,2 | 
[V:11] z2G,2E,3F,G,4 | 
[V:12] E,12 | 
[V:1] G8z2d2 | 
[V:2] B4z2d2B3c | 
[V:3] z2d2B3cd2G2 | 
[V:4] B3cd2G2g4 | 
[V:5] B3AG3F/E/D4- | 
[V:6] z2B3cd2G2D2 | 
[V:7] d12- | 
[V:8] G12 | 
[V:9] z4z2B3cd2 | 
[V:10] G,,12- | 
[V:11] G,F,G,A,B,3A,G,3F,/E,/ | 
[V:12] D,12 | 
[V:1] B3cd2G2G4 | 
[V:2] d2G2z2d4d2 | 
[V:3] z2d3cBAB4 | 
[V:4] z2g2g3f/e/d2g2 | 
[V:5] D2G3ABcd2G2 | 
[V:6] G3AB4G4 | 
[V:7] d12 | 
[V:8] G12 | 
[V:9] G3F/E/D2d2B4 | 
[V:10] G,,8G,,4 | 
[V:11] D,4z2D,2D,4 | 
[V:12] D,12 | 
[V:1] z2c3Bcde4 | 
[V:2] G4z2c3Bcd | 
[V:3] c3B/A/G2A2A3G/F/ | 
[V:4] g3fedc4G2 | 
[V:5] G4z2e3dc2- | 
[V:6] z2G4C2C4 | 
[V:7] e12- | 
[V:8] E12 | 
[V:9] z2e2e3dc3B/A/ | 
[V:10] C,4z4z4 | 
[V:11] C,6A,,4C,2- | 
[V:12] z12 | 
[V:1] c4z4z4 | 
[V:2] e4c4z2c2- | 
[V:3] E4G8 | 
[V:4] g3fedc4G2 | 
[V:5] c2BAG2e3dcB | 
[V:6] z4z2C3B,CD | 
[V:7] e12- | 
[V:8] G12 | 
[V:9] G4c8 | 
[V:10] z2C,3B,,C,D,E,4 | 
[V:11] C,B,,C,D,E,4C,4 | 
[V:12] z12 | 
[V:1] c3BAGA4GF | 
[V:2] cBAGA3G/F/E4 | 
[V:3] z2c3Bcde2c2 | 
[V:4] c4z2c3Bcd | 
[V:5] c2C2C4z4 | 
[V:6] E12 | 
[V:7] e12 | 
[V:8] A12 | 
[V:9] z2e3dcBc4 | 
[V:10] C,8z2E,2- | 
[V:11] A,,12 | 
[V:12] z12 | 
[V:1] E4z2c4BA | 
[V:2] z2c4BAG4 | 
[V:3] c2BAG4z4 | 
[V:4] e4c2g2e2g2- | 
[V:5] z4z2E3DEF | 
[V:6] z2E3DEFG2C2 | 
[V:7] e12 | 
[V:8] G8G4- | 
[V:9] c6c2c3B | 
[V:10] E,D,E,F,G,4C,4 | 
[V:11] C,12 | 
[V:12] z12 | 
[V:1] B3ABcd4cB | 
[V:2] z4B3ABcd2- | 
[V:3] d3cBAB4AG | 
[V:4] g2fed4g4 | 
[V:5] G2D2d4G4 | 
[V:6] G4B3cd4 | 
[V:7] d8d4- | 
[V:8] G12 | 
[V:9] d4G4B3c | 
[V:10] z2G,4F,E,D,4 | 
[V:11] G,,12 | 
[V:12] D,12- | 
[V:1] A4F2G2A4 | 
[V:2] d2cBAGG4^F2 | 
[V:3] F2D2d8 | 
[V:4] z2a2d3ef2d2 | 
[V:5] A2D2A2D3EF2 | 
[V:6] z4A2B2d3c | 
[V:7] d4z4z4 | 
[V:8] z12 | 
[V:9] dcd4cBA4 | 
[V:10] z2F,4D,6 | 
[V:11] D,12 | 
[V:12] D,4D,8 | 
[V:1] B4d6B2- | 
[V:2] G4z4d4 | 
[V:3] d2B4G2G4 | 
[V:4] z2g2g3fd4 | 
[V:5] D2B2B8 | 
[V:6] d4z2G3FGA | 
[V:7] d8d4- | 
[V:8] z12 | 
[V:9] G2G3FGAB3c | 
[V:10] D,6B,,4G,,2 | 
[V:11] G,,8G,,4 | 
[V:12] B,,8D,4- | 
[V:1] B2G2G4z4 | 
[V:2] d2B4G2G4 | 
[V:3] z2G3FGAB2G2 | 
[V:4] G4g4z4 | 
[V:5] z4z2G3FGA | 
[V:6] B8z4 | 
[V:7] d4B8 | 
[V:8] z4G8- | 
[V:9] d4G4z4 | 
[V:10] G,,12 | 
[V:11] G,6G,2G,4 | 
[V:12] D,4E,8 | 
[V:1] z2d3cBAB3c | 
[V:2] z4z2d3cBA | 
[V:3] d3cBAB2G4- | 
[V:4] z2g4g2d2g2- | 
[V:5] B2G2D2B4G2 | 
[V:6] z2GABcd2G2d2- | 
[V:7] d12- | 
[V:8] G8G4- | 
[V:9] B3AG2G4FE | 
[V:10] G,,A,,B,,C,D,2G,,2D,4 | 
[V:11] z2G,,2G,,4G,,2G,,2- | 
[V:12] D,8D,4- | 
[V:1] d4G2c3BGA | 
[V:2] B4E2A3GE2 | 
[V:3] G4z2e3cc2 | 
[V:4] gf/e/d2c8 | 
[V:5] G2g3e2dcde2 | 
[V:6] d2G4A2E4 | 
[V:7] d4e8 | 
[V:8] G4E8 | 
[V:9] D2G2z2C4C2 | 
[V:10] G,,4C,4A,,2C,2 | 
[V:11] G,,A,,B,,2C,2A,,2C,4 | 
[V:12] D,4z4z4 | 
[V:1] Bcd4cBAGG2- | 
[V:2] z2B4AGF2D2 | 
[V:3] d4G2d4cB | 
[V:4] z2g3fd2z2d2 | 
[V:5] z2B3ABcd2D2- | 
[V:6] B3cd2D4D2 | 
[V:7] d12 | 
[V:8] G8A4- | 
[V:9] G3FD2G2D2d2- | 
[V:10] G,,2D,3C,D,E,F,3G, | 
[V:11] B,,2G,,4G,,2D,4- | 
[V:12] z12 | 
[V:1] G2^F2G8- | 
[V:2] z2A2B3cd4- | 
[V:3] A2d3cBAB4- | 
[V:4] fedcB8- | 
[V:5] DEF2D4d4- | 
[V:6] A2D4D2G4- | 
[V:7] d12- | 
[V:8] A4G8 | 
[V:9] dcA2z4B4- | 
[V:10] D,4G,,8 | 
[V:11] D,4z2G,4G,,2 | 
[V:12] D,12- | 
[V:1] G12 ||  
[V:2] d12 ||  
[V:3] B12 ||  
[V:4] B12 ||  
[V:5] d12 ||  
[V:6] G12 ||  
[V:7] d12 ||  
[V:8] G12 ||  
[V:9] B12 ||  
[V:10] D,12 ||  
[V:11] G,,12 ||  
[V:12] D,12 ||  
[V:1]  [K:C] [K:clef=treble][M:2/1]c8- | 
[V:2]  [K:C] [K:clef=treble][M:2/1]G4G2E2- | 
[V:3]  [K:C] [K:clef=treble][M:2/1]z4G4 | 
[V:4]  [K:C] [K:clef=treble-8][M:2/1]e8 | 
[V:5]  [K:C] [K:clef=treble-8][M:2/1]z8 | 
[V:6]  [K:C] [K:clef=treble-8][M:2/1]c8- | 
[V:7]  [K:C] [K:clef=treble-8][M:2/1]z8 | 
[V:8]  [K:C] [K:clef=treble-8][M:2/1]z8 | 
[V:9]  [K:C] [K:clef=treble-8][M:2/1]G8 | 
[V:10]  [K:C] [K:clef=bass][M:2/1]C,8- | 
[V:11]  [K:C] [K:clef=bass][M:2/1]z8 | 
[V:12]  [K:C] [K:clef=bass][M:2/1]z8 | 
[V:1] c8 | 
[V:2] E2C2C4 | 
[V:3] G2E4C2 | 
[V:4] g6e2- | 
[V:5] z8 | 
[V:6] c4G4 | 
[V:7] z8 | 
[V:8] z8 | 
[V:9] G4E4- | 
[V:10] C,8- | 
[V:11] z8 | 
[V:12] z8 | 
[V:1] c6BA | 
[V:2] G8 | 
[V:3] C4c4 | 
[V:4] e2c2c2g2- | 
[V:5] z8 | 
[V:6] c4e4 | 
[V:7] z8 | 
[V:8] z8 | 
[V:9] E4E4 | 
[V:10] C,8 | 
[V:11] z8 | 
[V:12] z8 | 
[V:1] B4z2G2- | 
[V:2] z2G3ABc | 
[V:3] d4B2d2- | 
[V:4] g2fed4 | 
[V:5] z8 | 
[V:6] d2G4FE | 
[V:7] z8 | 
[V:8] z8 | 
[V:9] G3ABcB2- | 
[V:10] G,,8- | 
[V:11] z8 | 
[V:12] z8 | 
[V:1] GABcded2- | 
[V:2] d4z2G2 | 
[V:3] dcBAG3F/E/ | 
[V:4] G4z2g2- | 
[V:5] z8 | 
[V:6] D8 | 
[V:7] z8 | 
[V:8] z8 | 
[V:9] B2AGB4 | 
[V:10] G,,8- | 
[V:11] z8 | 
[V:12] z8 | 
[V:1] dcc4B2 | 
[V:2] B2c2d4 | 
[V:3] D4G4 | 
[V:4] g2fed4 | 
[V:5] z8 | 
[V:6] G8- | 
[V:7] z8 | 
[V:8] z8 | 
[V:9] z2G2BAGF | 
[V:10] G,,8 | 
[V:11] z8 | 
[V:12] z8 | 
[V:1] c8 | 
[V:2] e8 | 
[V:3] G8 | 
[V:4] c8 | 
[V:5] z8 | 
[V:6] G8 | 
[V:7] z8 | 
[V:8] z8 | 
[V:9] E8 | 
[V:10] C,8 | 
[V:11] z8 | 
[V:12] z8 | 
[V:1] z8 | 
[V:2] z8 | 
[V:3] z8 | 
[V:4] z8 | 
[V:5] E8 | 
[V:6] z8 | 
[V:7] c8- | 
[V:8] G4G2E2- | 
[V:9] e8- | 
[V:10] z8 | 
[V:11] C,8- | 
[V:12] z4G,4 | 
[V:1] z8 | 
[V:2] z8 | 
[V:3] z8 | 
[V:4] z8 | 
[V:5] G6E2- | 
[V:6] z8 | 
[V:7] c8 | 
[V:8] E2C2C4 | 
[V:9] e8 | 
[V:10] z8 | 
[V:11] C,8- | 
[V:12] G,2E,4C,2 | 
[V:1] z8 | 
[V:2] z8 | 
[V:3] z8 | 
[V:4] z8 | 
[V:5] E2C2C2G2- | 
[V:6] z8 | 
[V:7] c6BA | 
[V:8] G8 | 
[V:9] e6dc | 
[V:10] z8 | 
[V:11] C,8 | 
[V:12] C,4C4 | 
[V:1] z8 | 
[V:2] z8 | 
[V:3] z8 | 
[V:4] z8 | 
[V:5] G2FED4 | 
[V:6] z8 | 
[V:7] B4z2G2- | 
[V:8] z2G3ABc | 
[V:9] g6fe | 
[V:10] z8 | 
[V:11] G,,8- | 
[V:12] D4B,2D2- | 
[V:1] z8 | 
[V:2] z8 | 
[V:3] z8 | 
[V:4] z8 | 
[V:5] G4z2G2- | 
[V:6] z8 | 
[V:7] GABcded2- | 
[V:8] d4z2G2 | 
[V:9] d2G2B3c | 
[V:10] z8 | 
[V:11] G,,8- | 
[V:12] DCB,A,G,2F,E, | 
[V:1] z8 | 
[V:2] z8 | 
[V:3] z8 | 
[V:4] z8 | 
[V:5] G2FED4 | 
[V:6] z8 | 
[V:7] dcc4B2 | 
[V:8] B2c2d4 | 
[V:9] dGg6 | 
[V:10] z8 | 
[V:11] G,,8 | 
[V:12] D,4G,4 | 
[V:1] z8 | 
[V:2] z8 | 
[V:3] z8 | 
[V:4] z8 | 
[V:5] C8 | 
[V:6] z8 | 
[V:7] c8 | 
[V:8] e8 | 
[V:9] g8 | 
[V:10] z8 | 
[V:11] C,8 | 
[V:12] G,8 | 
[V:1] c8 | 
[V:2] e8 | 
[V:3] G8- | 
[V:4] c8 | 
[V:5] z8 | 
[V:6] G8 | 
[V:7] z8 | 
[V:8] z8 | 
[V:9] z8 | 
[V:10] C,8- | 
[V:11] z8 | 
[V:12] z8 | 
[V:1] c4c4 | 
[V:2] e6dc | 
[V:3] G8 | 
[V:4] e4e4 | 
[V:5] z8 | 
[V:6] E4C2G2- | 
[V:7] z8 | 
[V:8] z8 | 
[V:9] z8 | 
[V:10] C,8 | 
[V:11] z8 | 
[V:12] z8 | 
[V:1] d6c2 | 
[V:2] B4B4 | 
[V:3] G8 | 
[V:4] d8- | 
[V:5] z8 | 
[V:6] G2FED4 | 
[V:7] z8 | 
[V:8] z8 | 
[V:9] z8 | 
[V:10] G,,8 | 
[V:11] z8 | 
[V:12] z8 | 
[V:1] B4A4- | 
[V:2] d6cB | 
[V:3] F6G2 | 
[V:4] d8 | 
[V:5] z8 | 
[V:6] z4A4- | 
[V:7] z8 | 
[V:8] z8 | 
[V:9] z8 | 
[V:10] D,6E,2 | 
[V:11] z8 | 
[V:12] z8 | 
[V:1] A2G2G4- | 
[V:2] A4d4- | 
[V:3] A4D4 | 
[V:4] c4B4 | 
[V:5] z8 | 
[V:6] A4B4 | 
[V:7] z8 | 
[V:8] z8 | 
[V:9] z8 | 
[V:10] F,4G,4 | 
[V:11] z8 | 
[V:12] z8 | 
[V:1] G4^F4 | 
[V:2] d8 | 
[V:3] A8 | 
[V:4] A8 | 
[V:5] z8 | 
[V:6] d6c2 | 
[V:7] z8 | 
[V:8] z8 | 
[V:9] z8 | 
[V:10] D,8 | 
[V:11] z8 | 
[V:12] z8 | 
[V:1] G8 | 
[V:2] d8 | 
[V:3] B8 | 
[V:4] G8 | 
[V:5] z8 | 
[V:6] B8 | 
[V:7] z8 | 
[V:8] z8 | 
[V:9] z8 | 
[V:10] G,,8 | 
[V:11] z8 | 
[V:12] z8 | 
[V:1] z8 | 
[V:2] z8 | 
[V:3] z8 | 
[V:4] z8 | 
[V:5] G8- | 
[V:6] z8 | 
[V:7] c8 | 
[V:8] e8 | 
[V:9] g8 | 
[V:10] z8 | 
[V:11] C,8- | 
[V:12] C,8 | 
[V:1] z8 | 
[V:2] z8 | 
[V:3] z8 | 
[V:4] z8 | 
[V:5] G8 | 
[V:6] z8 | 
[V:7] c4c4 | 
[V:8] e6dc | 
[V:9] c4g4 | 
[V:10] z8 | 
[V:11] C,8 | 
[V:12] C,4C,4 | 
[V:1] z8 | 
[V:2] z8 | 
[V:3] z8 | 
[V:4] z8 | 
[V:5] G8 | 
[V:6] z8 | 
[V:7] d6c2 | 
[V:8] B4B4 | 
[V:9] g2fed4- | 
[V:10] z8 | 
[V:11] G,,8 | 
[V:12] D,6E,2 | 
[V:1] z8 | 
[V:2] z8 | 
[V:3] z8 | 
[V:4] z8 | 
[V:5] F6G2 | 
[V:6] z8 | 
[V:7] B4A4- | 
[V:8] d8 | 
[V:9] d2e2f4- | 
[V:10] z8 | 
[V:11] D,6E,2 | 
[V:12] F,8 | 
[V:1] z8 | 
[V:2] z8 | 
[V:3] z8 | 
[V:4] z8 | 
[V:5] A4d4- | 
[V:6] z8 | 
[V:7] A2G2G4- | 
[V:8] c4B4 | 
[V:9] f2e2d4 | 
[V:10] z8 | 
[V:11] F,4G,4 | 
[V:12] z8 | 
[V:1] z8 | 
[V:2] z8 | 
[V:3] z8 | 
[V:4] z8 | 
[V:5] d2cBA4 | 
[V:6] z8 | 
[V:7] G4^F4 | 
[V:8] A8 | 
[V:9] z4d4- | 
[V:10] z8 | 
[V:11] D,8 | 
[V:12] F,6D,2 | 
[V:1] B3cd4 | 
[V:2] z4B3c | 
[V:3] z8 | 
[V:4] d6g2- | 
[V:5] B8 | 
[V:6] z8 | 
[V:7] G8 | 
[V:8] G8 | 
[V:9] d2c2d4 | 
[V:10] z8 | 
[V:11] G,,8 | 
[V:12] D,8 | 
[V:1] G3AB3c | 
[V:2] d4G3A | 
[V:3] B3cd4 | 
[V:4] g2fed4 | 
[V:5] G6D2- | 
[V:6] D6G2- | 
[V:7] z8 | 
[V:8] z8 | 
[V:9] B8- | 
[V:10] G,,8- | 
[V:11] z8 | 
[V:12] z8 | 
[V:1] d4D2G2- | 
[V:2] B4G4- | 
[V:3] G3AB4 | 
[V:4] z4d4 | 
[V:5] D4G4- | 
[V:6] G2FED4 | 
[V:7] z8 | 
[V:8] z8 | 
[V:9] B6cB | 
[V:10] G,,8 | 
[V:11] z8 | 
[V:12] z8 | 
[V:1] GFEDC4- | 
[V:2] G2c4BA | 
[V:3] G6c2- | 
[V:4] e6g2- | 
[V:5] G4E4- | 
[V:6] C4G4- | 
[V:7] z8 | 
[V:8] z8 | 
[V:9] c4c4 | 
[V:10] C,8- | 
[V:11] z8 | 
[V:12] z8 | 
[V:1] C8- | 
[V:2] G4z2c2- | 
[V:3] c2BAG4 | 
[V:4] g2fee4 | 
[V:5] E2F2G2C2 | 
[V:6] G8 | 
[V:7] z8 | 
[V:8] z8 | 
[V:9] z4C4 | 
[V:10] C,8 | 
[V:11] z8 | 
[V:12] z8 | 
[V:1] C4F4 | 
[V:2] cBAGF2c2- | 
[V:3] F2EDC4 | 
[V:4] f8 | 
[V:5] F8 | 
[V:6] A8 | 
[V:7] z8 | 
[V:8] z8 | 
[V:9] C6D2 | 
[V:10] F,,8 | 
[V:11] z8 | 
[V:12] z8 | 
[V:1] G4z2A2 | 
[V:2] c2BAA4 | 
[V:3] z2C2F3G | 
[V:4] e4d4- | 
[V:5] z4D4 | 
[V:6] G4F4 | 
[V:7] z8 | 
[V:8] z8 | 
[V:9] E4A4- | 
[V:10] C,4D,4 | 
[V:11] z8 | 
[V:12] z8 | 
[V:1] c3de4 | 
[V:2] z4A4 | 
[V:3] ABc3BAG | 
[V:4] d2^cB^c4 | 
[V:5] A4z2A2- | 
[V:6] E8 | 
[V:7] z8 | 
[V:8] z8 | 
[V:9] A2GFE4 | 
[V:10] A,,8 | 
[V:11] z8 | 
[V:12] z8 | 
[V:1] A4d4 | 
[V:2] A8 | 
[V:3] F8 | 
[V:4] d8 | 
[V:5] A2GFF4 | 
[V:6] D8 | 
[V:7] z8 | 
[V:8] z8 | 
[V:9] F4f4 | 
[V:10] D,8 | 
[V:11] z8 | 
[V:12] z8 | 
[V:1] z8 | 
[V:2] z8 | 
[V:3] z8 | 
[V:4] z8 | 
[V:5] G8 | 
[V:6] z8 | 
[V:7] B3cd4 | 
[V:8] z4B3c | 
[V:9] d6g2- | 
[V:10] z8 | 
[V:11] G,,8- | 
[V:12] z8 | 
[V:1] z8 | 
[V:2] z8 | 
[V:3] z8 | 
[V:4] z8 | 
[V:5] D6G2- | 
[V:6] z8 | 
[V:7] G3AB3c | 
[V:8] d4G3A | 
[V:9] g2fed4 | 
[V:10] z8 | 
[V:11] G,,8- | 
[V:12] B,3CD4 | 
[V:1] z8 | 
[V:2] z8 | 
[V:3] z8 | 
[V:4] z8 | 
[V:5] G2FED4 | 
[V:6] z8 | 
[V:7] d4D2G2- | 
[V:8] B4G4- | 
[V:9] z4d4 | 
[V:10] z8 | 
[V:11] G,,8 | 
[V:12] G,3A,B,4 | 
[V:1] z8 | 
[V:2] z8 | 
[V:3] z8 | 
[V:4] z8 | 
[V:5] C4G4- | 
[V:6] z8 | 
[V:7] GFEDC4 | 
[V:8] G2c4BA | 
[V:9] e8- | 
[V:10] z8 | 
[V:11] C,8- | 
[V:12] G,6C2- | 
[V:1] z8 | 
[V:2] z8 | 
[V:3] z8 | 
[V:4] z8 | 
[V:5] G8 | 
[V:6] z8 | 
[V:7] z4C4- | 
[V:8] G4z2c2- | 
[V:9] e8 | 
[V:10] z8 | 
[V:11] C,8 | 
[V:12] C2B,A,G,4 | 
[V:1] z8 | 
[V:2] z8 | 
[V:3] z8 | 
[V:4] z8 | 
[V:5] A8 | 
[V:6] z8 | 
[V:7] C4F4 | 
[V:8] cBAGF2c2- | 
[V:9] f8 | 
[V:10] z8 | 
[V:11] F,,8 | 
[V:12] F,2E,D,C,4 | 
[V:1] z8 | 
[V:2] z8 | 
[V:3] z8 | 
[V:4] z8 | 
[V:5] G4F4 | 
[V:6] z8 | 
[V:7] G4z2A2 | 
[V:8] c2BAA4- | 
[V:9] e4d4- | 
[V:10] z8 | 
[V:11] C,4D,4 | 
[V:12] z2C,2F,3G, | 
[V:1] z8 | 
[V:2] z8 | 
[V:3] z8 | 
[V:4] z8 | 
[V:5] E8 | 
[V:6] z8 | 
[V:7] c3de4 | 
[V:8] A8 | 
[V:9] d2^cB^c4 | 
[V:10] z8 | 
[V:11] A,,8 | 
[V:12] A,B,C3B,A,G, | 
[V:1] z8 | 
[V:2] z8 | 
[V:3] z8 | 
[V:4] z8 | 
[V:5] D8 | 
[V:6] z8 | 
[V:7] f8 | 
[V:8] A8 | 
[V:9] d8 | 
[V:10] z8 | 
[V:11] D,8 | 
[V:12] F,8 | 
[V:1] d4e4 | 
[V:2] B4c4 | 
[V:3] G4E2G2- | 
[V:4] d4c4 | 
[V:5] z8 | 
[V:6] G6G2- | 
[V:7] z8 | 
[V:8] z8 | 
[V:9] z8 | 
[V:10] G,,4C,4 | 
[V:11] z8 | 
[V:12] z8 | 
[V:1] d4d4 | 
[V:2] B2G2A4 | 
[V:3] GDG4F2 | 
[V:4] d2B2A2d2 | 
[V:5] z8 | 
[V:6] G2D2F3E | 
[V:7] z8 | 
[V:8] z8 | 
[V:9] z8 | 
[V:10] G,,4D,4 | 
[V:11] D,4z2D,2 | 
[V:12] z8 | 
[V:1] B2d4cB | 
[V:2] G2B2A3G | 
[V:3] G2D2F3G | 
[V:4] d2G2A2d2- | 
[V:5] z8 | 
[V:6] D2G2F2A2- | 
[V:7] z8 | 
[V:8] z8 | 
[V:9] z8 | 
[V:10] G,,4D,3E, | 
[V:11] D,4z2D,2- | 
[V:12] z8 | 
[V:1] A2G2A4 | 
[V:2] FED2z2A2 | 
[V:3] A2d6 | 
[V:4] dcB2A4 | 
[V:5] z8 | 
[V:6] A2BGD4 | 
[V:7] z8 | 
[V:8] z8 | 
[V:9] z8 | 
[V:10] F,2G,4^F,2 | 
[V:11] D,2G,,2D,4 | 
[V:12] z8 | 
[V:1] G4z2d2- | 
[V:2] B2d3cBA | 
[V:3] d3cBAB2 | 
[V:4] z4d3c | 
[V:5] z8 | 
[V:6] z4G4- | 
[V:7] z8 | 
[V:8] z8 | 
[V:9] z8 | 
[V:10] G,4G,,4 | 
[V:11] G,,4z4 | 
[V:12] z8 | 
[V:1] dcBAB2A2- | 
[V:2] B2G4c2 | 
[V:3] G2D2G2E2 | 
[V:4] BAd4c2- | 
[V:5] z8 | 
[V:6] G2G4C2- | 
[V:7] z8 | 
[V:8] z8 | 
[V:9] z8 | 
[V:10] z2G,,4A,,2 | 
[V:11] z8 | 
[V:12] z8 | 
[V:1] AGG4^F2 | 
[V:2] A2d3cA2 | 
[V:3] F2D2z2d2 | 
[V:4] c2B2A4 | 
[V:5] z8 | 
[V:6] C2D2F3E | 
[V:7] z4d4- | 
[V:8] z8 | 
[V:9] z8 | 
[V:10] F,,2G,,2D,4 | 
[V:11] z8 | 
[V:12] z8 | 
[V:1] G4d4 | 
[V:2] B4G4 | 
[V:3] d4B4 | 
[V:4] G4g4- | 
[V:5] z8 | 
[V:6] D8 | 
[V:7] d2B3cd2 | 
[V:8] z8 | 
[V:9] z4G4 | 
[V:10] G,,8 | 
[V:11] z8 | 
[V:12] z8 | 
[V:1] e6c2- | 
[V:2] z4e4- | 
[V:3] c4G4 | 
[V:4] g2e3fg2 | 
[V:5] G4c3d | 
[V:6] z4G4 | 
[V:7] G4z4 | 
[V:8] z8 | 
[V:9] c3de3f | 
[V:10] G,6E,2- | 
[V:11] C,8- | 
[V:12] z4G,4- | 
[V:1] c2BAG4 | 
[V:2] e2c4BA | 
[V:3] e6c2- | 
[V:4] c2G2c3d | 
[V:5] e3fg4 | 
[V:6] c3de3f | 
[V:7] G6E2- | 
[V:8] z4G4- | 
[V:9] g4G4 | 
[V:10] E,F,G,2C,4 | 
[V:11] C,8 | 
[V:12] G,2E,3F,G,2 | 
[V:1] z8 | 
[V:2] G4z4 | 
[V:3] c2BAG4 | 
[V:4] e3fg2G2 | 
[V:5] G4z4 | 
[V:6] g4G4 | 
[V:7] EFG2C4 | 
[V:8] G2E3FG2 | 
[V:9] z4E4 | 
[V:10] z4E,4- | 
[V:11] C,8 | 
[V:12] C,4z4 | 
[V:1] c6A2- | 
[V:2] z4c4- | 
[V:3] z8 | 
[V:4] c4z4 | 
[V:5] E4A3B | 
[V:6] z4E4 | 
[V:7] z4e4- | 
[V:8] C4z4 | 
[V:9] A3Bc3d | 
[V:10] E,2C,3D,E,2 | 
[V:11] A,,8- | 
[V:12] E,6C,2- | 
[V:1] A2GFE4 | 
[V:2] c2A4GF | 
[V:3] c6A2- | 
[V:4] E4A3B | 
[V:5] c3de4 | 
[V:6] A3Bc3d | 
[V:7] e2c3de2 | 
[V:8] e6c2- | 
[V:9] e4E4 | 
[V:10] A,,4E,4 | 
[V:11] A,,8- | 
[V:12] C,D,E,2A,,4 | 
[V:1] z8 | 
[V:2] E4z4 | 
[V:3] A2GFE4 | 
[V:4] c3de4 | 
[V:5] E4z4 | 
[V:6] e4E4 | 
[V:7] A4e4 | 
[V:8] cde2A4 | 
[V:9] z4c4 | 
[V:10] z8 | 
[V:11] A,,8 | 
[V:12] E,4z4 | 
[V:1] e6c2- | 
[V:2] z4e4- | 
[V:3] z8 | 
[V:4] E4z4 | 
[V:5] G4c3d | 
[V:6] z4G4 | 
[V:7] z8 | 
[V:8] e4z4 | 
[V:9] c3de3f | 
[V:10] G,6E,2- | 
[V:11] C,8- | 
[V:12] z4G,4- | 
[V:1] c2BAG4 | 
[V:2] e2c4BA | 
[V:3] e6c2- | 
[V:4] G4c3d | 
[V:5] e3fg4 | 
[V:6] c3de3f | 
[V:7] G6E2- | 
[V:8] z4G4- | 
[V:9] g4G4 | 
[V:10] E,F,G,2C,4 | 
[V:11] C,8- | 
[V:12] G,2E,3F,G,2 | 
[V:1] z8 | 
[V:2] G4z4 | 
[V:3] c2BAG4 | 
[V:4] e3fg4 | 
[V:5] G4z4 | 
[V:6] g4G4 | 
[V:7] EFG2C4 | 
[V:8] G2E3FG2- | 
[V:9] z4z2G2 | 
[V:10] z4C,4 | 
[V:11] C,8 | 
[V:12] C,4E,4 | 
[V:1] d6B2- | 
[V:2] z4d4- | 
[V:3] z8 | 
[V:4] z2d4ef | 
[V:5] d4z2G2 | 
[V:6] z2G2B3c | 
[V:7] z4z2G2- | 
[V:8] G2FED4 | 
[V:9] B3cd4 | 
[V:10] G,,8- | 
[V:11] D,8- | 
[V:12] D,2G,4F,E, | 
[V:1] B2AGG4 | 
[V:2] d2B4AG | 
[V:3] d6B2- | 
[V:4] g4z4 | 
[V:5] B3cd4 | 
[V:6] d4z2G2 | 
[V:7] G2FED4 | 
[V:8] z2G4FE | 
[V:9] z2G2B3c | 
[V:10] G,,8- | 
[V:11] D,8- | 
[V:12] D,4z2G,2- | 
[V:1] z8 | 
[V:2] G4z4 | 
[V:3] B2AGG4 | 
[V:4] z2d4ef | 
[V:5] z2G2B3A/G/ | 
[V:6] B3cd4 | 
[V:7] z2G4FE | 
[V:8] D4z2G2- | 
[V:9] d4G4 | 
[V:10] G,,8 | 
[V:11] D,8 | 
[V:12] G,2F,E,D,4 | 
[V:1] e6c2- | 
[V:2] z4e4- | 
[V:3] z8 | 
[V:4] g4z2G2 | 
[V:5] G8- | 
[V:6] e8- | 
[V:7] E4z4 | 
[V:8] G2FEE4 | 
[V:9] c8- | 
[V:10] G,6E,2- | 
[V:11] C,8- | 
[V:12] z4G,4- | 
[V:1] c2BAG4 | 
[V:2] e2c4BA | 
[V:3] e6c2- | 
[V:4] c3de3f | 
[V:5] G8- | 
[V:6] e8- | 
[V:7] G6E2- | 
[V:8] z4G4- | 
[V:9] c8- | 
[V:10] E,F,G,2C,4 | 
[V:11] C,8 | 
[V:12] G,2E,3F,G,2 | 
[V:1] e8- | 
[V:2] G4c4 | 
[V:3] c2BAG4 | 
[V:4] g4z4 | 
[V:5] G8- | 
[V:6] e8- | 
[V:7] EFG2C4 | 
[V:8] G2E3FG2 | 
[V:9] c8- | 
[V:10] z4C,4 | 
[V:11] C,8- | 
[V:12] C,4z4 | 
[V:1] e8 ||  
[V:2] c8 ||  
[V:3] G8 ||  
[V:4] e8 ||  
[V:5] G8 ||  
[V:6] e8 ||  
[V:7] G8 ||  
[V:8] E8 ||  
[V:9] c8 ||  
[V:10] C,8 & E,8 ||  
[V:11] C,8 ||  
[V:12] E,8 ||  
[V:1]  [K:C] [K:clef=treble][M:3/1]d6B4AG | 
[V:2]  [K:C] [K:clef=treble][M:3/1]B6G4FE | 
[V:3]  [K:C] [K:clef=treble][M:3/1]G3FG2D2G4 | 
[V:4]  [K:C] [K:clef=treble-8][M:3/1]d4g3fg2d2 | 
[V:5]  [K:C] [K:clef=treble-8][M:3/1]D4D2G3FG2 | 
[V:6]  [K:C] [K:clef=treble-8][M:3/1]B3cd4G2d2- | 
[V:7]  [K:C] [K:clef=treble-8][M:3/1]d12- | 
[V:8]  [K:C] [K:clef=treble-8][M:3/1]G2B3cd4cB | 
[V:9]  [K:C] [K:clef=treble-8][M:3/1]G8D4 | 
[V:10]  [K:C] [K:clef=bass][M:3/1]G,,3A,,B,,3C,D,3E, | 
[V:11]  [K:C] [K:clef=bass][M:3/1]G,,12 | 
[V:12]  [K:C] [K:clef=bass][M:3/1]D,4G,,3A,,B,,3C, | 
[V:1] F2A3G^FEF4 | 
[V:2] D2F3GA2D2A2 | 
[V:3] z2F2D2d3cd2 | 
[V:4] z2A2d2d3ef2 | 
[V:5] z2D2A3B/c/d4 | 
[V:6] d2cBA4z4 | 
[V:7] d12- | 
[V:8] A2d4cBA4 | 
[V:9] z2D3EF4D2 | 
[V:10] F,3G,A,2D,2D,4 | 
[V:11] D,8D,4 | 
[V:12] D,3E,F,3G,A,2D,2 | 
[V:1] G4d8 | 
[V:2] d6B4AG | 
[V:3] B3AG2D2G4 | 
[V:4] d2g4fed2g2 | 
[V:5] d3cBAG3FD2 | 
[V:6] G2B3cd4cB | 
[V:7] d12- | 
[V:8] B3cd4G2d2- | 
[V:9] D4G3AB3c | 
[V:10] z2D,2G,,8 | 
[V:11] G,,3A,,B,,3C,D,3E, | 
[V:12] z2D,4G,6 | 
[V:1] z2D3EFGA2D2- | 
[V:2] F2A3G^FEF4 | 
[V:3] A2F2D2d3cA2 | 
[V:4] z2d2f4fedc | 
[V:5] z2A2A4d4 | 
[V:6] A2d4cBA4 | 
[V:7] d12 | 
[V:8] d2cBA4z2A2 | 
[V:9] d4D8 | 
[V:10] D,4D,4F,4 | 
[V:11] F,3G,A,2D,2D,4 | 
[V:12] D,2F,3G,A,2D,4 | 
[V:1] D2G3AB2z2B2- | 
[V:2] G2D2G3AB2e2- | 
[V:3] dcBAGFG2D2G2 | 
[V:4] d8g3f | 
[V:5] D6B6 | 
[V:6] G4d3cBAG2- | 
[V:7] B12- | 
[V:8] B2d3cBAG4 | 
[V:9] z2G2G8 | 
[V:10] D,4B,,2G,,4G,2- | 
[V:11] G,,4z2G,4E,2- | 
[V:12] z2D,2G,,2D,4E,F, | 
[V:1] BAGFG4z2G2 | 
[V:2] edd4e2B4 | 
[V:3] G3AB4G4 | 
[V:4] e2B2z2e3fg2 | 
[V:5] G6B3GG2 | 
[V:6] GAB3AGFG4 | 
[V:7] B12 | 
[V:8] z2d2B4e4 | 
[V:9] z4z2G2E2E2 | 
[V:10] G,2G,,4G,4G,2 | 
[V:11] E,F,G,3F,E,D,E,4 | 
[V:12] G,4z2G,4E,2 | 
[V:1] F3GA2d4A2- | 
[V:2] z2A4F3GA2 | 
[V:3] z4z2A4F2- | 
[V:4] z2d3cA2f4 | 
[V:5] z4A4F4 | 
[V:6] d2f3edcd4 | 
[V:7] d12- | 
[V:8] A2d4cBA4 | 
[V:9] A6D2A4 | 
[V:10] A,4D,2F,3E,D,C, | 
[V:11] D,4z2D,3E,F,2- | 
[V:12] F,3D,F,G,A,2D,2A,2- | 
[V:1] A2D3EF2G4 | 
[V:2] D4z2d6 | 
[V:3] FGA2D4B4 | 
[V:4] a6d2g4 | 
[V:5] D4d3cd2B2 | 
[V:6] A4F4D4 | 
[V:7] d12 | 
[V:8] z2d4A2B4 | 
[V:9] F4A4G4 | 
[V:10] D,4z4G,4 | 
[V:11] F,E,D,C,D,4G,,4 | 
[V:12] A,G,F,E,F,2D,4G,2 | 
[V:1] G4z2c2c3d | 
[V:2] G2c4e3dcB | 
[V:3] z2G4C3DE2- | 
[V:4] g6e2a2e2 | 
[V:5] G4c3de4 | 
[V:6] C3DE4C4 | 
[V:7] e12- | 
[V:8] c6c4BA | 
[V:9] z2G2E2C2c4- | 
[V:10] E,3F,G,2A,4G,F, | 
[V:11] C,4z2A,,3B,,C,2- | 
[V:12] G,F,E,D,C,3B,,/A,,/E,4 | 
[V:1] e4e2e3dc2 | 
[V:2] c8G4 | 
[V:3] ECC4C2z2G2- | 
[V:4] z2a4e3fg2- | 
[V:5] z2A2c2A2E4 | 
[V:6] c3BAGA2G2E2 | 
[V:7] e12 | 
[V:8] G2A2E2c3BGA | 
[V:9] c2e6c4 | 
[V:10] E,12 | 
[V:11] C,B,,A,,G,,A,,3B,,C,4 | 
[V:12] z2E,2C,8 | 
[V:1] B4z2G2F2G2 | 
[V:2] d4z2B2A2zG | 
[V:3] G2G2A2B2d2zB | 
[V:4] gfd2z2d2d3e | 
[V:5] z2D4G2z2d2- | 
[V:6] G4D3EF2D2 | 
[V:7] d12- | 
[V:8] B4A2zGA2B2 | 
[V:9] z2B2dcBGd4 | 
[V:10] z2G,2F,2G,2D,2G,2 | 
[V:11] G,,4D,2G,,2z2G,,2 | 
[V:12] D,3E,F,2D,2z2D,2 | 
[V:1] D2G2F2GG2FG2 | 
[V:2] A2B2A2zGA2B2 | 
[V:3] d3dd2zBd3d | 
[V:4] f2d2z2d2d3e | 
[V:5] dcB2d2zd2cBG | 
[V:6] z2D2D3EF2D2 | 
[V:7] d12 | 
[V:8] A2zGA2B2A2zG | 
[V:9] A2Gd2cBGd2zd- | 
[V:10] F,2G,2D,2G,2D,2G,,2 | 
[V:11] D,2G,,2D,2G,,2z2G,2 | 
[V:12] D,3E,F,2D,2z2D,2 | 
[V:1] D2G2F2G2D2G2 | 
[V:2] A2zGA2B2A2zG | 
[V:3] d2zBd3dd2zB | 
[V:4] f2d2z2d2d3e | 
[V:5] zDd3cBGzDd2- | 
[V:6] z2D2D3EF2D2 | 
[V:7] d12- | 
[V:8] A2B2A2zGA2B2 | 
[V:9] dcBGd2zd2cBG | 
[V:10] D,2G,,2z2G,,2D,2G,,2 | 
[V:11] F,2G,2D,2G,2F,2G,2 | 
[V:12] D,3E,F,2D,2z2D,2 | 
[V:1] F2G2D4d4 | 
[V:2] A2B2A2G4^F2 | 
[V:3] d3dd2zd2cA2 | 
[V:4] f2d2z2g2a2d2- | 
[V:5] dcBGzDd4d2- | 
[V:6] z2D4D2A4 | 
[V:7] d12 | 
[V:8] A2zGA2B2A4 | 
[V:9] d2zd2cBGd2D2- | 
[V:10] z2G,,2D,2G,,2z2D,2 | 
[V:11] D,2G,2F,2G,2D,4 | 
[V:12] D,3E,F,2D,2F,3E, | 
[V:1] B12 | 
[V:2] G12 | 
[V:3] z2d4B2B4 | 
[V:4] d2g3fd2g4 | 
[V:5] d4G3AB4 | 
[V:6] B6G2G4 | 
[V:7] z12 | 
[V:8] G12 | 
[V:9] D4G3FD4 | 
[V:10] D,4z4z4 | 
[V:11] G,,12 | 
[V:12] D,6G,,2G,,4 | 
[V:1] z12 | 
[V:2] z12 | 
[V:3] z12 | 
[V:4] z12 | 
[V:5] z12 | 
[V:6] A3GA2B2A2B2- | 
[V:7] d8d4 | 
[V:8] z12 | 
[V:9] z2DEFDG2F2G2- | 
[V:10] D,6G,,2D,2G,,2 | 
[V:11] z12 | 
[V:12] z12 | 
[V:1] z12 | 
[V:2] z12 | 
[V:3] z12 | 
[V:4] z12 | 
[V:5] z12 | 
[V:6] Bcd2z2d3cAB | 
[V:7] B8d4 | 
[V:8] z12 | 
[V:9] G2FED2G4F2 | 
[V:10] z2G,,2G,,3A,,B,,C,D,2 | 
[V:11] z12 | 
[V:12] z12 | 
[V:1] z12 | 
[V:2] z12 | 
[V:3] z12 | 
[V:4] z12 | 
[V:5] z12 | 
[V:6] c4A2B2A4 | 
[V:7] e4d2d4^c2 | 
[V:8] z12 | 
[V:9] G2E2F2G2E4 | 
[V:10] C,4D,2G,,2A,,4 | 
[V:11] z12 | 
[V:12] z12 | 
[V:1] z12 | 
[V:2] z12 | 
[V:3] z12 | 
[V:4] z12 | 
[V:5] z4z2d4c2 | 
[V:6] A4z4z4 | 
[V:7] d4z4z4 | 
[V:8] z4G8 | 
[V:9] D4z4z4 | 
[V:10] D,4z4z4 | 
[V:11] z4G,,3A,,B,,2C,2 | 
[V:12] z4z2D,4E,2 | 
[V:1] z12 | 
[V:2] z12 | 
[V:3] z12 | 
[V:4] z12 | 
[V:5] d2G2c4z2A2 | 
[V:6] z12 | 
[V:7] z12 | 
[V:8] G4E8 | 
[V:9] z12 | 
[V:10] z12 | 
[V:11] B,,2C,3B,,A,,G,,A,,4 | 
[V:12] D,2E,3D,C,B,,C,4 | 
[V:1] z12 | 
[V:2] z12 | 
[V:3] z12 | 
[V:4] z12 | 
[V:5] B2c4c2B2G2 | 
[V:6] z12 | 
[V:7] z12 | 
[V:8] G4A4G2G2- | 
[V:9] z12 | 
[V:10] z12 | 
[V:11] G,,2C,4A,,2B,,2C,2 | 
[V:12] D,2E,4C,2D,2E,2 | 
[V:1] z4z4d4- | 
[V:2] z4z4D3E | 
[V:3] z4z4A3G | 
[V:4] z4z4d4- | 
[V:5] A4B4z4 | 
[V:6] z12 | 
[V:7] z12 | 
[V:8] G2^F2G4z4 | 
[V:9] z12 | 
[V:10] z12 | 
[V:11] A,,4G,,4z4 | 
[V:12] C,4D,4z4 | 
[V:1] d4d4B4- | 
[V:2] FDG2F2G4FE | 
[V:3] A2B2A2B3cd2 | 
[V:4] d2G2d2G2z2G2 | 
[V:5] z12 | 
[V:6] z12 | 
[V:7] z12 | 
[V:8] z12 | 
[V:9] z12 | 
[V:10] z12 | 
[V:11] z12 | 
[V:12] z12 | 
[V:1] B4d4e4 | 
[V:2] D2G4F2G2E2 | 
[V:3] z2d3cABc4 | 
[V:4] G3ABcd2c4 | 
[V:5] z12 | 
[V:6] z12 | 
[V:7] z12 | 
[V:8] z12 | 
[V:9] z12 | 
[V:10] z12 | 
[V:11] z12 | 
[V:12] z12 | 
[V:1] d2d4^c2d4 | 
[V:2] F2G2E4D4 | 
[V:3] A2B2A4A4 | 
[V:4] d2G2A4d4- | 
[V:5] z12 | 
[V:6] z12 | 
[V:7] z12 | 
[V:8] z12 | 
[V:9] z12 | 
[V:10] z12 | 
[V:11] z12 | 
[V:12] z12 | 
[V:1] B2G2B3cd4 | 
[V:2] z2B3cd2G2d2- | 
[V:3] d4z2B3GB2- | 
[V:4] d2B2G2B3cd2 | 
[V:5] G4D4G4 | 
[V:6] G8D4 | 
[V:7] B3cd2G4FE | 
[V:8] d8B2G2 | 
[V:9] d6B6 | 
[V:10] D,8D,4 | 
[V:11] G,,12- | 
[V:12] D,4B,,2G,,2B,,3C, | 
[V:1] G2d3cBAB4 | 
[V:2] dcBAB2G2d4 | 
[V:3] Bcd2G4z2G2 | 
[V:4] g4z2g3fd2 | 
[V:5] G2B3cd2d2G2- | 
[V:6] d4z2G3AB2 | 
[V:7] D4G2B3AGF | 
[V:8] B3cd4G4 | 
[V:9] G3F/E/D2d3cd2 | 
[V:10] B,,2G,,2B,,3C,D,4 | 
[V:11] G,,12 | 
[V:12] D,2G,4F,E,D,2G,2- | 
[V:1] c4c2c4BA | 
[V:2] e4e2e4e2 | 
[V:3] E2C2E3FG4 | 
[V:4] z2g2g3fedc2 | 
[V:5] G2G2c6G2 | 
[V:6] E2c4BAG4 | 
[V:7] G8c4- | 
[V:8] z2G4E2C2E2- | 
[V:9] G2e3fg2c2g2- | 
[V:10] C,8G,4 | 
[V:11] C,12- | 
[V:12] G,4E,2C,2E,3F, | 
[V:1] G2e4dcc4 | 
[V:2] c3B/A/G4G4 | 
[V:3] z2G3FEDE4 | 
[V:4] g2c2z2g6 | 
[V:5] CDEFG2C2G4 | 
[V:6] z2C2G4E4 | 
[V:7] c12 | 
[V:8] EFG2c3B/A/G4 | 
[V:9] gfedefg2c4 | 
[V:10] E,2C,2E,3F,G,2C,2 | 
[V:11] C,12 | 
[V:12] G,4C,4z4 | 
[V:1] A2F2A3Bc4 | 
[V:2] c8z2c2 | 
[V:3] F4z2c4A2 | 
[V:4] a3gfef4ed | 
[V:5] z2c4A2F4 | 
[V:6] C2F3GA3Bc2 | 
[V:7] c4F4F2A2- | 
[V:8] F4c4A2F2 | 
[V:9] z2f4edc4- | 
[V:10] C,4A,,2F,,2A,,3B,, | 
[V:11] F,,12- | 
[V:12] C,12 | 
[V:1] z2c3BAGF2A2 | 
[V:2] A2F2A3Bc4 | 
[V:3] F2A3Bc4A2 | 
[V:4] c4f8 | 
[V:5] z2C4C2F2C2 | 
[V:6] F3E/D/C4z4 | 
[V:7] ABc2F4c4 | 
[V:8] A3Bc4A4 | 
[V:9] c2f4edc4 | 
[V:10] C,12 | 
[V:11] F,,12 | 
[V:12] F,8F,4 | 
[V:1] d3cBAB4AG | 
[V:2] G2B3cd2G4 | 
[V:3] B2d4G2d4 | 
[V:4] z2d2g3fd4 | 
[V:5] G4D4z4 | 
[V:6] z2G4D2G4 | 
[V:7] z4z4d4 | 
[V:8] G4d4B2d2- | 
[V:9] z2B2G3AB3A | 
[V:10] B,,2G,,2B,,3C,D,3E, | 
[V:11] G,,12 | 
[V:12] D,6G,4F,E, | 
[V:1] F2A3GFEF4 | 
[V:2] A2d4d2A2d2- | 
[V:3] z4A8 | 
[V:4] z2f3edcd4 | 
[V:5] F3GA2D2A4 | 
[V:6] z2d3ef3edc | 
[V:7] d12- | 
[V:8] d2cBA8 | 
[V:9] A4D4F4 | 
[V:10] F,2D,2F,3G,A,2D,2- | 
[V:11] D,12 | 
[V:12] D,2F,3G,A,2D,4 | 
[V:1] G4z2G2B4 | 
[V:2] dcBAG4z2d2- | 
[V:3] B3cd8- | 
[V:4] d6g6 | 
[V:5] z2d2B2G2d4 | 
[V:6] B2G4D2G4 | 
[V:7] d12 | 
[V:8] z2G2B3AG4 | 
[V:9] D4D2B3GG2 | 
[V:10] D,4G,4D,4 | 
[V:11] G,,8G,,4 | 
[V:12] G,4D,4z4 | 
[V:1] A2d3cB2A2G2 | 
[V:2] dcB2A2G2F2d2- | 
[V:3] d4z2d3cB2 | 
[V:4] f3dd2zGA2Bc | 
[V:5] z2d2A2d2D4 | 
[V:6] DEFGA2Bcd2zG | 
[V:7] d12- | 
[V:8] z4D3EF2G2 | 
[V:9] A2F3DD2zAd2 | 
[V:10] z2D,2D,2G,,2z2D,2 | 
[V:11] z4z2D,2D,2G,,2 | 
[V:12] D,3E,F,2G,2D,3E, | 
[V:1] F2d3cB2A2G2 | 
[V:2] dcB2A2G2F2d2- | 
[V:3] A2G2F2d3cB2 | 
[V:4] d2zGA2Bcd2zG | 
[V:5] z4F2D2D4 | 
[V:6] A2Bcd2zGA2Bc | 
[V:7] d12- | 
[V:8] D3EF2G2D3E | 
[V:9] zAd2zAd2zAd2 | 
[V:10] D,2G,,2z2D,2D,2G,,2 | 
[V:11] z2D,2D,2G,,2z2D,2 | 
[V:12] F,2G,2D,3E,F,2G,2 | 
[V:1] F2d3cB2A4 | 
[V:2] dcB2A2G3^FFE | 
[V:3] A2G2F2d6 | 
[V:4] A2Bcd2zGA2Bc | 
[V:5] z4F2D2D4 | 
[V:6] d2zGA2Bcd2d2- | 
[V:7] d12- | 
[V:8] F2G2D3EF4 | 
[V:9] zAd2zAd2zAd2 | 
[V:10] z2D,2D,2G,,2z2D,2 | 
[V:11] D,2G,,2z2D,2D,4 | 
[V:12] D,3E,F,2G,2D,4 | 
[V:1] B12 |]  
[V:2] G12 |]  
[V:3] d12 |]  
[V:4] d12 |]  
[V:5] z4d8 |]  
[V:6] d2B2B8 |]  
[V:7] d12 |]  
[V:8] D4G8 |]  
[V:9] B3GG8 |]  
[V:10] D,4G,,8 |]  
[V:11] G,,4D,8 |]  
[V:12] z4D,8 |]  



